images/logo.svg

<svg width="116" height="24" viewBox="0 0 116 24" fill="none" xmlns="http://www.w3.org/2000/svg">
<path d="M6.436 5.238H9.154L10.486 9.324L11.818 5.238H14.554L12.376 11.178L13.672 14.58L16.876 5.22H20.098L15.112 18H12.556L10.486 12.996L8.434 18H5.86L0.892 5.22H4.096L7.318 14.58L8.578 11.178L6.436 5.238ZM30.7304 15.408V18H21.7484V5.22H30.5684V7.812H24.7004V10.296H29.7404V12.69H24.7004V15.408H30.7304ZM43.6298 14.724C43.6298 15.456 43.4318 16.068 43.0358 16.56C42.6518 17.04 42.1298 17.4 41.4698 17.64C40.8098 17.88 40.0838 18 39.2918 18H33.0638V5.22H40.1738C40.7738 5.22 41.2898 5.382 41.7218 5.706C42.1658 6.018 42.5018 6.426 42.7298 6.93C42.9698 7.434 43.0898 7.956 43.0898 8.496C43.0898 9.096 42.9338 9.672 42.6218 10.224C42.3098 10.764 41.8538 11.172 41.2538 11.448C41.9858 11.664 42.5618 12.048 42.9818 12.6C43.4138 13.152 43.6298 13.86 43.6298 14.724ZM40.6238 14.13C40.6238 13.854 40.5698 13.614 40.4618 13.41C40.3538 13.194 40.2098 13.026 40.0298 12.906C39.8618 12.774 39.6578 12.708 39.4178 12.708H36.0158V15.498H39.2918C39.5438 15.498 39.7658 15.438 39.9578 15.318C40.1618 15.198 40.3238 15.036 40.4438 14.832C40.5638 14.628 40.6238 14.394 40.6238 14.13ZM36.0158 7.74V10.386H38.9138C39.1298 10.386 39.3278 10.338 39.5078 10.242C39.6998 10.146 39.8558 10.002 39.9758 9.81C40.0958 9.606 40.1558 9.354 40.1558 9.054C40.1558 8.766 40.1018 8.526 39.9938 8.334C39.8978 8.142 39.7658 7.998 39.5978 7.902C39.4298 7.794 39.2378 7.74 39.0218 7.74H36.0158Z" fill="#4D5AE5"/>
<path d="M53.892 8.964C53.856 8.904 53.73 8.814 53.514 8.694C53.298 8.562 53.028 8.424 52.704 8.28C52.38 8.136 52.026 8.01 51.642 7.902C51.258 7.794 50.874 7.74 50.49 7.74C49.986 7.74 49.596 7.83 49.32 8.01C49.044 8.178 48.906 8.442 48.906 8.802C48.906 9.09 49.008 9.318 49.212 9.486C49.428 9.654 49.734 9.804 50.13 9.936C50.526 10.056 51.012 10.2 51.588 10.368C52.404 10.584 53.112 10.848 53.712 11.16C54.312 11.46 54.768 11.85 55.08 12.33C55.404 12.81 55.566 13.446 55.566 14.238C55.566 14.958 55.434 15.57 55.17 16.074C54.906 16.566 54.546 16.968 54.09 17.28C53.646 17.58 53.136 17.802 52.56 17.946C51.984 18.078 51.39 18.144 50.778 18.144C50.154 18.144 49.512 18.084 48.852 17.964C48.204 17.832 47.58 17.652 46.98 17.424C46.38 17.184 45.828 16.896 45.324 16.56L46.62 13.986C46.668 14.046 46.824 14.16 47.088 14.328C47.352 14.484 47.676 14.652 48.06 14.832C48.456 15 48.894 15.15 49.374 15.282C49.854 15.414 50.34 15.48 50.832 15.48C51.36 15.48 51.75 15.396 52.002 15.228C52.266 15.06 52.398 14.826 52.398 14.526C52.398 14.202 52.26 13.95 51.984 13.77C51.72 13.59 51.354 13.428 50.886 13.284C50.43 13.14 49.902 12.978 49.302 12.798C48.522 12.558 47.874 12.288 47.358 11.988C46.854 11.688 46.476 11.322 46.224 10.89C45.984 10.458 45.864 9.918 45.864 9.27C45.864 8.37 46.074 7.614 46.494 7.002C46.926 6.378 47.502 5.91 48.222 5.598C48.942 5.274 49.728 5.112 50.58 5.112C51.18 5.112 51.756 5.184 52.308 5.328C52.872 5.472 53.394 5.652 53.874 5.868C54.366 6.084 54.804 6.3 55.188 6.516L53.892 8.964ZM67.5762 7.812H63.6882V18H60.7362V7.812H56.8302V5.22H67.5762V7.812ZM75.0479 18.108C74.0279 18.108 73.1579 17.94 72.4379 17.604C71.7179 17.256 71.1299 16.788 70.6739 16.2C70.2299 15.6 69.8999 14.922 69.6839 14.166C69.4799 13.398 69.3779 12.594 69.3779 11.754V5.22H72.3299V11.754C72.3299 12.234 72.3779 12.702 72.4739 13.158C72.5699 13.602 72.7259 13.998 72.9419 14.346C73.1579 14.694 73.4339 14.97 73.7699 15.174C74.1179 15.378 74.5439 15.48 75.0479 15.48C75.5639 15.48 75.9959 15.378 76.3439 15.174C76.6919 14.958 76.9679 14.676 77.1719 14.328C77.3759 13.968 77.5259 13.566 77.6219 13.122C77.7179 12.678 77.7659 12.222 77.7659 11.754V5.22H80.7179V11.754C80.7179 12.642 80.6039 13.47 80.3759 14.238C80.1599 15.006 79.8239 15.684 79.3679 16.272C78.9119 16.848 78.3239 17.298 77.6039 17.622C76.8959 17.946 76.0439 18.108 75.0479 18.108ZM83.5452 18V5.22H88.3152C89.7192 5.22 90.8892 5.508 91.8252 6.084C92.7732 6.648 93.4872 7.416 93.9672 8.388C94.4472 9.348 94.6872 10.416 94.6872 11.592C94.6872 12.888 94.4232 14.016 93.8952 14.976C93.3672 15.936 92.6232 16.68 91.6632 17.208C90.7152 17.736 89.5992 18 88.3152 18H83.5452ZM91.6812 11.592C91.6812 10.848 91.5492 10.194 91.2852 9.63C91.0212 9.054 90.6372 8.61 90.1332 8.298C89.6292 7.974 89.0232 7.812 88.3152 7.812H86.4972V15.408H88.3152C89.0352 15.408 89.6412 15.246 90.1332 14.922C90.6372 14.586 91.0212 14.13 91.2852 13.554C91.5492 12.966 91.6812 12.312 91.6812 11.592ZM96.9699 18V5.22H99.9219V18H96.9699ZM108.504 18.108C107.544 18.108 106.674 17.928 105.894 17.568C105.126 17.196 104.46 16.704 103.896 16.092C103.344 15.468 102.918 14.772 102.618 14.004C102.318 13.224 102.168 12.42 102.168 11.592C102.168 10.74 102.324 9.93 102.636 9.162C102.96 8.394 103.404 7.71 103.968 7.11C104.544 6.498 105.222 6.018 106.002 5.67C106.782 5.322 107.634 5.148 108.558 5.148C109.506 5.148 110.364 5.334 111.132 5.706C111.912 6.066 112.578 6.558 113.13 7.182C113.694 7.806 114.126 8.508 114.426 9.288C114.726 10.056 114.876 10.842 114.876 11.646C114.876 12.498 114.72 13.308 114.408 14.076C114.096 14.844 113.652 15.534 113.076 16.146C112.5 16.746 111.822 17.226 111.042 17.586C110.274 17.934 109.428 18.108 108.504 18.108ZM105.174 11.628C105.174 12.12 105.246 12.6 105.39 13.068C105.534 13.524 105.744 13.932 106.02 14.292C106.308 14.652 106.662 14.94 107.082 15.156C107.502 15.372 107.982 15.48 108.522 15.48C109.086 15.48 109.578 15.372 109.998 15.156C110.418 14.928 110.766 14.628 111.042 14.256C111.318 13.884 111.522 13.47 111.654 13.014C111.798 12.546 111.87 12.072 111.87 11.592C111.87 11.1 111.798 10.626 111.654 10.17C111.51 9.714 111.294 9.306 111.006 8.946C110.718 8.574 110.364 8.286 109.944 8.082C109.524 7.878 109.05 7.776 108.522 7.776C107.958 7.776 107.466 7.884 107.046 8.1C106.638 8.316 106.29 8.61 106.002 8.982C105.726 9.342 105.516 9.756 105.372 10.224C105.24 10.68 105.174 11.148 105.174 11.628Z" fill="#2E2F42"/>
</svg>

<svg xmlns="http://www.w3.org/2000/svg" width="116" height="24" fill="none"><path fill="#4D5AE5" d="M6.436 5.238h2.718l1.332 4.086 1.332-4.086h2.736l-2.178 5.94 1.296 3.402 3.204-9.36h3.222L15.112 18h-2.556l-2.07-5.004L8.434 18H5.86L.892 5.22h3.204l3.222 9.36 1.26-3.402-2.142-5.94Zm24.294 10.17V18h-8.982V5.22h8.82v2.592H24.7v2.484h5.04v2.394H24.7v2.718h6.03Zm12.9-.684c0 .732-.198 1.344-.594 1.836-.384.48-.906.84-1.566 1.08-.66.24-1.386.36-2.178.36h-6.228V5.22h7.11c.6 0 1.116.162 1.548.486.444.312.78.72 1.008 1.224.24.504.36 1.026.36 1.566 0 .6-.156 1.176-.468 1.728-.312.54-.768.948-1.368 1.224.732.216 1.308.6 1.728 1.152.432.552.648 1.26.648 2.124Zm-3.006-.594c0-.276-.054-.516-.162-.72a1.275 1.275 0 0 0-.432-.504.96.96 0 0 0-.612-.198h-3.402v2.79h3.276c.252 0 .474-.06.666-.18.204-.12.366-.282.486-.486.12-.204.18-.438.18-.702Zm-4.608-6.39v2.646h2.898c.216 0 .414-.048.594-.144.192-.096.348-.24.468-.432.12-.204.18-.456.18-.756 0-.288-.054-.528-.162-.72a.992.992 0 0 0-.396-.432 1.042 1.042 0 0 0-.576-.162h-3.006Z"/><path fill="#2E2F42" d="M53.892 8.964c-.036-.06-.162-.15-.378-.27a7.842 7.842 0 0 0-1.872-.792 4.238 4.238 0 0 0-1.152-.162c-.504 0-.894.09-1.17.27-.276.168-.414.432-.414.792 0 .288.102.516.306.684.216.168.522.318.918.45.396.12.882.264 1.458.432.816.216 1.524.48 2.124.792.6.3 1.056.69 1.368 1.17.324.48.486 1.116.486 1.908 0 .72-.132 1.332-.396 1.836a3.37 3.37 0 0 1-1.08 1.206c-.444.3-.954.522-1.53.666a7.952 7.952 0 0 1-1.782.198c-.624 0-1.266-.06-1.926-.18a12.008 12.008 0 0 1-1.872-.54 9 9 0 0 1-1.656-.864l1.296-2.574c.048.06.204.174.468.342.264.156.588.324.972.504.396.168.834.318 1.314.45.48.132.966.198 1.458.198.528 0 .918-.084 1.17-.252.264-.168.396-.402.396-.702a.854.854 0 0 0-.414-.756c-.264-.18-.63-.342-1.098-.486-.456-.144-.984-.306-1.584-.486-.78-.24-1.428-.51-1.944-.81-.504-.3-.882-.666-1.134-1.098-.24-.432-.36-.972-.36-1.62 0-.9.21-1.656.63-2.268a3.979 3.979 0 0 1 1.728-1.404 5.68 5.68 0 0 1 2.358-.486c.6 0 1.176.072 1.728.216a9.594 9.594 0 0 1 1.566.54c.492.216.93.432 1.314.648l-1.296 2.448Zm13.684-1.152h-3.888V18h-2.952V7.812H56.83V5.22h10.746v2.592Zm7.472 10.296c-1.02 0-1.89-.168-2.61-.504a4.875 4.875 0 0 1-1.764-1.404 6.292 6.292 0 0 1-.99-2.034 9.357 9.357 0 0 1-.306-2.412V5.22h2.952v6.534c0 .48.048.948.144 1.404.096.444.252.84.468 1.188.216.348.492.624.828.828.348.204.774.306 1.278.306.516 0 .948-.102 1.296-.306.348-.216.624-.498.828-.846.204-.36.354-.762.45-1.206.096-.444.144-.9.144-1.368V5.22h2.952v6.534c0 .888-.114 1.716-.342 2.484a5.877 5.877 0 0 1-1.008 2.034 4.628 4.628 0 0 1-1.764 1.35c-.708.324-1.56.486-2.556.486ZM83.545 18V5.22h4.77c1.404 0 2.574.288 3.51.864a5.432 5.432 0 0 1 2.142 2.304c.48.96.72 2.028.72 3.204 0 1.296-.264 2.424-.792 3.384a5.55 5.55 0 0 1-2.232 2.232c-.948.528-2.064.792-3.348.792h-4.77Zm8.136-6.408c0-.744-.132-1.398-.396-1.962a2.984 2.984 0 0 0-1.152-1.332c-.504-.324-1.11-.486-1.818-.486h-1.818v7.596h1.818c.72 0 1.326-.162 1.818-.486a3.216 3.216 0 0 0 1.152-1.368c.264-.588.396-1.242.396-1.962ZM96.97 18V5.22h2.952V18H96.97Zm11.534.108c-.96 0-1.83-.18-2.61-.54a6.604 6.604 0 0 1-1.998-1.476 6.94 6.94 0 0 1-1.278-2.088c-.3-.78-.45-1.584-.45-2.412 0-.852.156-1.662.468-2.43a6.869 6.869 0 0 1 1.332-2.052 6.202 6.202 0 0 1 4.59-1.962c.948 0 1.806.186 2.574.558.78.36 1.446.852 1.998 1.476a6.706 6.706 0 0 1 1.296 2.106c.3.768.45 1.554.45 2.358 0 .852-.156 1.662-.468 2.43a6.649 6.649 0 0 1-1.332 2.07 6.657 6.657 0 0 1-2.034 1.44c-.768.348-1.614.522-2.538.522Zm-3.33-6.48c0 .492.072.972.216 1.44.144.456.354.864.63 1.224.288.36.642.648 1.062.864.42.216.9.324 1.44.324.564 0 1.056-.108 1.476-.324.42-.228.768-.528 1.044-.9s.48-.786.612-1.242a4.81 4.81 0 0 0 0-2.844 3.745 3.745 0 0 0-.648-1.224 2.965 2.965 0 0 0-1.062-.864 3.213 3.213 0 0 0-1.422-.306c-.564 0-1.056.108-1.476.324-.408.216-.756.51-1.044.882a3.91 3.91 0 0 0-.63 1.242 5.024 5.024 0 0 0-.198 1.404Z"/></svg>
